src/actions/24/view-group.svg

<svg viewBox="0 0 24 24" xmlns="http://www.w3.org/2000/svg">
 <defs>
  <style type="text/css">.ColorScheme-Text {
        color:#2e3440;
      }</style>
 </defs>
 <path class="ColorScheme-Text" d="m4 4v16h16v-16h-16zm1 4h14v11h-14v-11zm2 1v4h4v-4h-4zm6 0v4h4v-4h-4zm-5 1h2v2h-2v-2zm6 0h2v2h-2v-2zm-7 4v4h4v-4h-4zm6 0v4h4v-4h-4zm-5 1h2v2h-2v-2zm6 0h2v2h-2v-2z" fill="currentColor"/>
</svg>

<svg xmlns="http://www.w3.org/2000/svg" viewBox="0 0 24 24">
  <defs id="defs3051">
    <style type="text/css" id="current-color-scheme">
      .ColorScheme-Text {
        color:#2e3440;
      }
      </style>
  </defs>
 <path style="fill:currentColor;fill-opacity:1;stroke:none" 
     d="M 4 4 L 4 20 L 20 20 L 20 4 L 4 4 z M 5 8 L 19 8 L 19 19 L 5 19 L 5 8 z M 7 9 L 7 13 L 11 13 L 11 9 L 7 9 z M 13 9 L 13 13 L 17 13 L 17 9 L 13 9 z M 8 10 L 10 10 L 10 12 L 8 12 L 8 10 z M 14 10 L 16 10 L 16 12 L 14 12 L 14 10 z M 7 14 L 7 18 L 11 18 L 11 14 L 7 14 z M 13 14 L 13 18 L 17 18 L 17 14 L 13 14 z M 8 15 L 10 15 L 10 17 L 8 17 L 8 15 z M 14 15 L 16 15 L 16 17 L 14 17 L 14 15 z "
     class="ColorScheme-Text"
     />
</svg>
